storage/app/icons/tabler/filled/layout-bottombar.svg

<!--
version: "2.30"
unicode: "fc37"
-->
<svg
  xmlns="http://www.w3.org/2000/svg"
  width="24"
  height="24"
  viewBox="0 0 24 24"
  fill="currentColor"
>
  <path d="M18 3a3 3 0 0 1 2.995 2.824l.005 .176v12a3 3 0 0 1 -2.824 2.995l-.176 .005h-12a3 3 0 0 1 -2.995 -2.824l-.005 -.176v-12a3 3 0 0 1 2.824 -2.995l.176 -.005h12zm0 2h-12a1 1 0 0 0 -.993 .883l-.007 .117v9h14v-9a1 1 0 0 0 -.883 -.993l-.117 -.007z" />
</svg>

<svg xmlns="http://www.w3.org/2000/svg" width="24" height="24" fill="currentColor" viewBox="0 0 24 24"><path d="M18 3a3 3 0 0 1 2.995 2.824L21 6v12a3 3 0 0 1-2.824 2.995L18 21H6a3 3 0 0 1-2.995-2.824L3 18V6a3 3 0 0 1 2.824-2.995L6 3zm0 2H6a1 1 0 0 0-.993.883L5 6v9h14V6a1 1 0 0 0-.883-.993z"/></svg>
